X:1
T:James Gibb editions
T:Come ye heavy states of night - Dowland
T:#
%%score [ 1 2 3 4 ]
L:1/8
Q:1/4=108
M:4/4
K:F
V:1 treble nm="Soprano" snm="S"
V:2 treble nm="Alto" snm="A"
V:3 treble-8 nm="Tenor" snm="T"
V:4 bass nm="Bass" snm="B"
V:1
"^Come ye heavy states of night""^John Dowland\n(1563-1626)" (B3 c d4- | d4) G4 | ^F4 B4 | A6 A2 | %4
w: Come * *|* ye|hea- vy|states of|
w: ||||
w: Come * *|* you|vir- gins|of the|
 G8 | (A3 B c4- | c4) (d2 c2) | B4 A4 |[M:4/4] G6 G2 | ^F8 | (G3 A B2) B2 | B8- | B4 d4 | c4 c4 | %14
w: night,|Do * *|* my *|fa- ther's|spi- rit|right,|Sound\- * * ings|bale\-|* ful|let me|
w: ||||||||||
w: night,|That * *|* in *|dir- ges|sad de-|light,|Choir * * my|an\-|* thems|I do|
 d2 d6 | B4 (c2 B2) | A4 B4 | A6 A2 | G2 G6 | f8 | (B3 c) d4 | c4 (B3 A) | (G3 A B2) c2 | d8 | %24
w: bor- row,|Bur- the\- *|ning my|song with|sor- row,||||||
w: |||||Come,|sor\- * row,|come her *|eyes * * that|sings,|
w: bor- row|gold nor *|pearl, but|sounds of|sor- row.||||||
 z4 A4 | B4 c4 | d4 c4- | c4 B4 | A8 | G8 |] %30
w: ||||||
w: By|thee are|tur- ned|* in-|to|springs.|
w: ||||||
V:2
 D8 | G6 D2 | D4 D4 | _E4 (D2 C2) | =B,8 | z4 F4- | F4 F4 | D2 D2 D4- |[M:4/4] (D2 CB,) C4 | D8 | %10
w: Come,|come ye|hea- vy|states of *|night,|Do|* my|fa- ther's spi-|* * * rit|right,|
w: ||||||||||
w: Come,|come you|vir- gins|of the *|night,|That|* in|dir- ges sad|* * * de-|light,|
 (B,3 C D2) D2 | D8- | D4 F4 | F6 F2 | F2 F6 | G4 _E4 | F4 D4 | _E4 (D2 C2) | B,2 B,6 | D8 | %20
w: Sound\- * * ings|bale\-|* ful|let me|bor- row,|Bur- the-|ning my|song with *|sor- row,||
w: |||||||||Come,|
w: Choir * * my|an\-|* thems,|I do|bor- row|gold nor|pearl, but|sounds of *|sor- row.||
 F4 B4 | A2 F4 D2- | D2 D2 G4 | ^F8 | z4 ^F4 | G4 A4 | B4 A2 G2 | ^F4 G4 | z2 D4 D2 | D8 |] %30
w: ||||||||||
w: sor- row,|come, come her|* eyes that|sings,|By|thee are|tur- ned, are|tur- ned|in- to|springs.|
w: ||||||||||
V:3
 G8 | B6 B2 | A4 G4 | G4 ^F4 | G8 | (c6 B2) | A8 | G4 F4 |[M:4/4][K:treble-8] B4 G4 | A8 | G4 F4 | %11
w: Come,|come ye|hea- vy|states of|night,|Do *|my|fa- ther's|spi- rit|right,|Sound- ings|
w: |||||||||||
w: Come,|come you|vir- gins|of the|night,|That *|in|dir- ges|sad de-|light,|Choir my|
 F8- | F4 B4 | B4 A4 | B2 B6 | G6 G2 | d6 G2 | G4 ^F4 | G2 G6 | z2 (F2 B3 c) | (d3 e f2) F2- | %21
w: bale\-|* ful|let me|bor- row,|Bur- the-|ning my|song with|sor- row,|||
w: ||||||||Come, * *|sor\- * * row,|
w: an\-|* thems,|I do|bor- row|gold nor|pearl, but|sounds of|sor- row.|||
 F2 A4 F2 | B6 G2 | A8 | z4 d4 | d4 f4 | f4 _e4 | z2 A2 !courtesy!_B2 (G2- | G2 ^FE) F4 | G8 |] %30
w: |||||||||
w: * come her|eyes that|sings,|By|thee are|tur- ned,|are turned in\-|* * * to|springs.|
w: |||||||||
V:4
 G,,8 | G,,6 G,,2 | D,4 B,,4 | C,4 D,4 | G,,8 | F,8- | F,4 D,4 | G,4 D,4 |[M:4/4] E,6 E,2 | D,8 | %10
w: Come,|come ye|hea- vy|states of|night,|Do|* my|fa- ther's|spi- rit|right,|
w: ||||||||||
w: Come,|come you|vir- gins|of the|night,|That|* in|dir- ges|sad de-|light,|
 E,4 D,4 | B,,8- | B,,4 B,,4 | F,4 F,4 | B,,2 B,,6 | E,4 C,4 | D,4 B,,4 | C,4 D,4 | G,,2 G,,6 | %19
w: Sound- ings|bale\-|* ful|let me|bor- row,|Bur- the-|ning my|song with|sor- row,|
w: |||||||||
w: Choir my|an\-|* thems,|I do|bor- row|gold nor|pearl, but|sounds of|sor- row.|
 B,,8 | B,,6 B,,2 | F,4 D,4 | _E,6 E,2 | D,8 | z4 D,4 | G,4 F,4 | B,,4 C,4 | D,8- | D,4 D,4 | %29
w: ||||||||||
w: Come,|sor- row,|come her|eyes that|sings,|By|thee are|tur- ned|in\-|* to|
w: ||||||||||
 G,,8 |] %30
w: |
w: springs.|
w: |

